IMB-X-Files/The-Ambassadors-Assets/66101551f95637151b139120_﹟79.svg

<svg fill="none" height="106" viewBox="0 0 106 106" width="106" xmlns="http://www.w3.org/2000/svg"><path d="m69.1917 40.1128-16.1914-28.335-16.1914 28.335h7.7675m24.6153 0h-24.6153m24.6153 0-12.3843 8.0794m-24.6154 0-10.0139 17.5244h7.7675m2.2464-17.5244 12.3844-8.0794m-12.3844 8.0794h24.6154m27.015 17.5244-10.0139-17.5244h-17.0011m27.015 17.5244h-53.8768m53.8768 0-12.3843 8.0795m-53.8768 0-11.67214 20.4262h94.22184l-11.6717-20.4262h-17.0012m-53.8768 0 12.3843-8.0795m-12.3843 8.0795h53.8768" stroke="#ed5d3d" stroke-linecap="round" stroke-linejoin="round"/></svg>

<svg width="106" height="106" viewBox="0 0 106 106" fill="none" xmlns="http://www.w3.org/2000/svg">
    <path
        d="M69.1917 40.1128L53.0003 11.7778L36.8089 40.1128H44.5764M69.1917 40.1128H44.5764M69.1917 40.1128L56.8074 48.1922M32.192 48.1922L22.1781 65.7166H29.9456M32.192 48.1922L44.5764 40.1128M32.192 48.1922H56.8074M83.8224 65.7166L73.8085 48.1922H56.8074M83.8224 65.7166H29.9456M83.8224 65.7166L71.4381 73.7961M17.5613 73.7961L5.88916 94.2223H100.111L88.4393 73.7961H71.4381M17.5613 73.7961L29.9456 65.7166M17.5613 73.7961H71.4381"
        stroke="#ED5D3D" stroke-linecap="round" stroke-linejoin="round" />
</svg>
